public/images/doc-kit.svg

<svg width="120" height="92" viewBox="0 0 120 92" fill="none" xmlns="http://www.w3.org/2000/svg">
<g id="doc-kit 1">
<g id="Group">
<g id="Group_2">
<path id="Vector" d="M36.6698 65.03C37.1298 64.57 37.1598 63.85 36.7798 63.33C28.5398 52.23 29.4598 36.48 39.5198 26.41C49.5898 16.34 65.3398 15.43 76.4398 23.67C76.9598 24.06 77.6798 24.02 78.1398 23.56C78.6898 23.01 78.6398 22.09 78.0198 21.63C65.9098 12.61 48.6998 13.6 37.6998 24.59C26.6998 35.58 25.7198 52.8 34.7398 64.91C35.1998 65.53 36.1198 65.58 36.6698 65.03Z" fill="#ADDEDB"/>
<path id="Vector_2" d="M82.4702 27.9C82.0102 28.36 81.9802 29.08 82.3602 29.6C90.6002 40.7 89.6802 56.45 79.6202 66.52C69.5602 76.59 53.8002 77.5 42.7002 69.26C42.1802 68.87 41.4602 68.91 41.0002 69.37C40.4502 69.92 40.5002 70.84 41.1202 71.3C53.2302 80.32 70.4402 79.34 81.4402 68.34C92.4402 57.34 93.4202 40.13 84.4002 28.02C83.9402 27.4 83.0202 27.35 82.4702 27.9Z" fill="#ADDEDB"/>
</g>
<path id="Vector_3" d="M68.1997 31.32H50.9397C47.3497 31.32 44.4297 34.24 44.4297 37.83V55.09C44.4297 58.68 47.3497 61.6 50.9397 61.6H68.1997C71.7897 61.6 74.7097 58.68 74.7097 55.09V37.83C74.7097 34.24 71.7897 31.32 68.1997 31.32ZM46.3197 37.83C46.3197 35.28 48.3897 33.21 50.9397 33.21H53.4897C53.9097 33.21 54.2797 33.5 54.3697 33.92C54.8097 35.94 54.2197 38.1 52.7097 39.6C51.2097 41.1 49.0497 41.7 47.0297 41.26C46.6197 41.17 46.3197 40.81 46.3197 40.38V37.83ZM62.1697 59.71H50.9397C48.3897 59.71 46.3197 57.64 46.3197 55.09V43.86C46.3197 43.45 46.6897 43.13 47.0897 43.19C47.4897 43.25 47.9197 43.29 48.3397 43.29C49.1997 43.29 50.0597 43.15 50.8797 42.88C51.1897 42.78 51.4797 43.08 51.3597 43.38C50.1897 46.5 50.8597 50.14 53.3597 52.65C55.8597 55.16 59.5097 55.82 62.6297 54.65C62.9397 54.54 63.2297 54.83 63.1297 55.14C62.7297 56.35 62.6197 57.65 62.8197 58.93C62.8797 59.34 62.5697 59.71 62.1497 59.71H62.1697ZM72.8197 55.09C72.8197 57.64 70.7497 59.71 68.1997 59.71H65.6497C65.2297 59.71 64.8597 59.42 64.7697 59C64.3297 56.98 64.9197 54.82 66.4297 53.32C67.9297 51.82 70.0897 51.22 72.1097 51.66C72.5197 51.75 72.8197 52.11 72.8197 52.54V55.09ZM72.8197 49.06C72.8197 49.48 72.4497 49.79 72.0397 49.73C70.7697 49.53 69.4697 49.64 68.2497 50.04C67.9397 50.14 67.6497 49.85 67.7597 49.54C68.9297 46.42 68.2597 42.78 65.7597 40.27C63.2597 37.76 59.6097 37.1 56.4897 38.27C56.1797 38.38 55.8897 38.09 55.9897 37.78C56.3897 36.57 56.4997 35.27 56.2997 33.99C56.2397 33.58 56.5497 33.21 56.9697 33.21H68.1997C70.7497 33.21 72.8197 35.28 72.8197 37.83V49.06Z" fill="#13706D"/>
<path id="Vector_4" d="M102.39 66.12H91.9104C91.4604 66.12 91.0504 65.88 90.8304 65.5C90.6104 65.11 90.6004 64.64 90.8304 64.25C93.9104 58.86 95.5303 52.7 95.5303 46.46C95.5303 41.3 94.4604 36.33 92.3604 31.67C90.0804 26.63 86.6004 22.1 82.2904 18.59C75.9004 13.38 67.8304 10.51 59.5704 10.51C55.6104 10.51 51.7203 11.15 48.0103 12.41C47.6303 12.54 47.2104 12.48 46.8804 12.24C46.5504 12.01 46.3604 11.63 46.3604 11.22V7.5C46.3604 6.81 46.9204 6.25 47.6104 6.25C48.3004 6.25 48.8604 6.81 48.8604 7.5V9.52C52.3304 8.52 55.9204 8.01 59.5704 8.01C68.4104 8.01 77.0404 11.08 83.8704 16.66C88.4704 20.42 92.2003 25.25 94.6303 30.65C96.8803 35.63 98.0203 40.95 98.0203 46.47C98.0203 52.44 96.6303 58.33 93.9903 63.63H102.39C103.54 63.63 104.47 62.7 104.47 61.55V31.2C104.47 30.05 103.54 29.12 102.39 29.12C99.8604 29.12 97.8103 27.06 97.8103 24.54V10.85C97.8103 8.32 99.8703 6.27 102.39 6.27C104.91 6.27 106.97 8.33 106.97 10.85V18.22C106.97 18.91 106.41 19.47 105.72 19.47C105.03 19.47 104.47 18.91 104.47 18.22V10.85C104.47 9.7 103.54 8.77 102.39 8.77C101.24 8.77 100.31 9.7 100.31 10.85V24.54C100.31 25.69 101.24 26.62 102.39 26.62C104.92 26.62 106.97 28.68 106.97 31.2V61.55C106.97 64.08 104.91 66.13 102.39 66.13V66.12Z" fill="#ADDEDB"/>
<path id="Vector_5" d="M25.1399 33.59H13.1699C12.4799 33.59 11.9199 33.03 11.9199 32.34C11.9199 31.65 12.4799 31.09 13.1699 31.09H24.3199C26.6799 25.68 30.2999 20.85 34.8299 17.03V11.39C34.8299 9.94 33.6499 8.75 32.1899 8.75H17.0599C15.6099 8.75 14.4199 9.93 14.4199 11.39V20.85C14.4199 22.3 15.5999 23.49 17.0599 23.49C18.5199 23.49 19.6999 22.31 19.6999 20.85V18.15C19.6999 15.32 21.9999 13.01 24.8399 13.01H28.6499C29.3399 13.01 29.8999 13.57 29.8999 14.26C29.8999 14.95 29.3399 15.51 28.6499 15.51H24.8399C23.3899 15.51 22.1999 16.69 22.1999 18.15V20.85C22.1999 23.68 19.8999 25.99 17.0599 25.99C14.2199 25.99 11.9199 23.69 11.9199 20.85V11.39C11.9199 8.56 14.2199 6.25 17.0599 6.25H32.1899C35.0199 6.25 37.3299 8.55 37.3299 11.39V17.62C37.3299 18 37.1599 18.35 36.8699 18.59C32.2299 22.38 28.5799 27.3 26.3099 32.82C26.1199 33.29 25.6599 33.6 25.1499 33.6L25.1399 33.59Z" fill="#ADDEDB"/>
<path id="Vector_6" d="M15.7599 85.74C13.6399 85.74 11.9199 84.02 11.9199 81.9V46.38C11.9199 43.33 14.3999 40.85 17.4499 40.85H18.1299C19.5899 40.85 20.9599 41.42 21.9899 42.45C23.0399 43.5 23.6199 44.92 23.6199 46.42C23.6199 55.68 27.0999 64.44 33.4199 71.14C38.1299 76.13 44.1099 79.65 50.7199 81.32C52.4799 81.76 54.2899 82.08 56.0899 82.25C56.7799 82.32 57.2799 82.93 57.2099 83.61C57.1399 84.3 56.5399 84.81 55.8499 84.73C53.9199 84.55 51.9899 84.21 50.0999 83.73C43.0299 81.94 36.6299 78.17 31.5899 72.84C24.8299 65.68 21.1099 56.3 21.1099 46.45C21.1099 45.57 20.7899 44.78 20.2099 44.2C19.6499 43.64 18.9099 43.33 18.1199 43.33H17.4399C15.7699 43.33 14.4099 44.69 14.4099 46.36V81.88C14.4099 82.62 15.0099 83.22 15.7499 83.22C16.4899 83.22 17.0899 82.62 17.0899 81.88V72.61C17.0899 70.49 18.8099 68.77 20.9299 68.77C23.0499 68.77 24.7699 70.49 24.7699 72.61V81.81C24.7699 82.55 25.3699 83.15 26.1099 83.15H32.3999C33.0899 83.15 33.6499 83.71 33.6499 84.4C33.6499 85.09 33.0899 85.65 32.3999 85.65H26.1099C23.9899 85.65 22.2699 83.93 22.2699 81.81V72.61C22.2699 71.87 21.6699 71.27 20.9299 71.27C20.1899 71.27 19.5899 71.87 19.5899 72.61V81.88C19.5899 84 17.8699 85.72 15.7499 85.72L15.7599 85.74Z" fill="#ADDEDB"/>
<path id="Vector_7" d="M104.23 85.74H100.93C98.7995 85.74 97.0696 84.01 97.0696 81.88V78.53C97.0696 77.84 97.6296 77.28 98.3195 77.28C99.0095 77.28 99.5695 77.84 99.5695 78.53V81.88C99.5695 82.63 100.18 83.24 100.93 83.24H104.23C104.98 83.24 105.59 82.63 105.59 81.88V75.36C105.59 74.61 104.98 74 104.23 74H90.9296C90.1796 74 89.5696 74.61 89.5696 75.36C89.5696 77.49 87.8396 79.22 85.7096 79.22H81.1695C80.2395 79.22 79.3596 79.44 78.6096 79.87C74.9796 81.94 71.0595 83.4 66.9596 84.2C66.2796 84.33 65.6295 83.89 65.4895 83.21C65.3595 82.53 65.7996 81.88 66.4796 81.74C70.3096 80.99 73.9696 79.63 77.3596 77.69C78.4796 77.05 79.7996 76.71 81.1596 76.71H85.6995C86.4495 76.71 87.0595 76.1 87.0595 75.35C87.0595 73.22 88.7896 71.49 90.9195 71.49H104.22C106.35 71.49 108.08 73.22 108.08 75.35V81.87C108.08 84 106.35 85.73 104.22 85.73L104.23 85.74Z" fill="#ADDEDB"/>
</g>
<path id="Vector_8" d="M88.51 85.67H81.29C80.6 85.67 80.04 85.11 80.04 84.42C80.04 83.73 80.6 83.17 81.29 83.17H88.51C89.96 83.17 91.14 81.99 91.14 80.54C91.14 79.85 91.7 79.29 92.39 79.29C93.08 79.29 93.64 79.85 93.64 80.54C93.64 83.37 91.34 85.67 88.51 85.67Z" fill="#ADDEDB"/>
<path id="Vector_9" d="M100.91 38.07C100.22 38.07 99.6602 37.51 99.6602 36.82V32.68C99.6602 31.99 100.22 31.43 100.91 31.43C101.6 31.43 102.16 31.99 102.16 32.68V36.82C102.16 37.51 101.6 38.07 100.91 38.07Z" fill="#ADDEDB"/>
<path id="Vector_10" d="M18.3496 64.23C17.6596 64.23 17.0996 63.67 17.0996 62.98V58.69C17.0996 58 17.6596 57.44 18.3496 57.44C19.0396 57.44 19.5996 58 19.5996 58.69V62.98C19.5996 63.67 19.0396 64.23 18.3496 64.23Z" fill="#ADDEDB"/>
<path id="Vector_11" d="M102.39 80.79C101.7 80.79 101.14 80.23 101.14 79.54V78.4C101.14 77.71 101.7 77.15 102.39 77.15C103.08 77.15 103.64 77.71 103.64 78.4V79.54C103.64 80.23 103.08 80.79 102.39 80.79Z" fill="#ADDEDB"/>
<path id="Vector_12" d="M91.2896 16.09C90.6896 16.09 90.0896 15.86 89.6396 15.42C88.4496 14.27 87.0796 13.22 85.5696 12.29C84.9796 11.93 84.7996 11.16 85.1596 10.57C85.5196 9.98001 86.2896 9.80001 86.8796 10.16C88.4496 11.12 89.8796 12.21 91.1396 13.4V10.31C91.1396 9.45001 90.4396 8.76001 89.5896 8.76001H80.0596C79.3696 8.76001 78.8096 8.20001 78.8096 7.51001C78.8096 6.82001 79.3696 6.26001 80.0596 6.26001H89.5896C91.8196 6.26001 93.6396 8.08001 93.6396 10.31V13.75C93.6396 14.7 93.0796 15.54 92.2096 15.91C91.9096 16.04 91.5996 16.1 91.2896 16.1V16.09Z" fill="#ADDEDB"/>
</g>
</svg>

<svg xmlns="http://www.w3.org/2000/svg" width="120" height="92" fill="none"><path fill="#ADDEDB" d="M36.67 65.03c.46-.46.49-1.18.11-1.7-8.24-11.1-7.32-26.85 2.74-36.92 10.07-10.07 25.82-10.98 36.92-2.74.52.39 1.24.35 1.7-.11.55-.55.5-1.47-.12-1.93-12.11-9.02-29.32-8.03-40.32 2.96S25.72 52.8 34.74 64.91c.46.62 1.38.67 1.93.12m45.8-37.13c-.46.46-.49 1.18-.11 1.7 8.24 11.1 7.32 26.85-2.74 36.92S53.8 77.5 42.7 69.26c-.52-.39-1.24-.35-1.7.11-.55.55-.5 1.47.12 1.93 12.11 9.02 29.32 8.04 40.32-2.96s11.98-28.21 2.96-40.32c-.46-.62-1.38-.67-1.93-.12"/><path fill="#13706D" d="M68.2 31.32H50.94c-3.59 0-6.51 2.92-6.51 6.51v17.26c0 3.59 2.92 6.51 6.51 6.51H68.2c3.59 0 6.51-2.92 6.51-6.51V37.83c0-3.59-2.92-6.51-6.51-6.51m-21.88 6.51c0-2.55 2.07-4.62 4.62-4.62h2.55c.42 0 .79.29.88.71.44 2.02-.15 4.18-1.66 5.68a6.19 6.19 0 0 1-5.68 1.66.9.9 0 0 1-.71-.88zm15.85 21.88H50.94c-2.55 0-4.62-2.07-4.62-4.62V43.86c0-.41.37-.73.77-.67s.83.1 1.25.1c.86 0 1.72-.14 2.54-.41.31-.1.6.2.48.5a8.76 8.76 0 0 0 2 9.27c2.5 2.51 6.15 3.17 9.27 2 .31-.11.6.18.5.49-.4 1.21-.51 2.51-.31 3.79.06.41-.25.78-.67.78zm10.65-4.62c0 2.55-2.07 4.62-4.62 4.62h-2.55c-.42 0-.79-.29-.88-.71-.44-2.02.15-4.18 1.66-5.68a6.19 6.19 0 0 1 5.68-1.66.9.9 0 0 1 .71.88zm0-6.03c0 .42-.37.73-.78.67-1.27-.2-2.57-.09-3.79.31-.31.1-.6-.19-.49-.5 1.17-3.12.5-6.76-2-9.27s-6.15-3.17-9.27-2c-.31.11-.6-.18-.5-.49.4-1.21.51-2.51.31-3.79-.06-.41.25-.78.67-.78H68.2c2.55 0 4.62 2.07 4.62 4.62z"/><path fill="#ADDEDB" d="M102.39 66.12H91.91a1.247 1.247 0 0 1-1.08-1.87c3.08-5.39 4.7-11.55 4.7-17.79 0-5.16-1.07-10.13-3.17-14.79a36.2 36.2 0 0 0-10.07-13.08 36.05 36.05 0 0 0-22.72-8.08c-3.96 0-7.85.64-11.56 1.9-.38.13-.8.07-1.13-.17-.33-.23-.52-.61-.52-1.02V7.5a1.25 1.25 0 0 1 2.5 0v2.02c3.47-1 7.06-1.51 10.71-1.51 8.84 0 17.47 3.07 24.3 8.65 4.6 3.76 8.33 8.59 10.76 13.99 2.25 4.98 3.39 10.3 3.39 15.82 0 5.97-1.39 11.86-4.03 17.16h8.4c1.15 0 2.08-.93 2.08-2.08V31.2c0-1.15-.93-2.08-2.08-2.08-2.53 0-4.58-2.06-4.58-4.58V10.85c0-2.53 2.06-4.58 4.58-4.58s4.58 2.06 4.58 4.58v7.37a1.25 1.25 0 0 1-2.5 0v-7.37c0-1.15-.93-2.08-2.08-2.08s-2.08.93-2.08 2.08v13.69c0 1.15.93 2.08 2.08 2.08 2.53 0 4.58 2.06 4.58 4.58v30.35c0 2.53-2.06 4.58-4.58 4.58zM25.14 33.59H13.17a1.25 1.25 0 0 1 0-2.5h11.15a38.7 38.7 0 0 1 10.51-14.06v-5.64c0-1.45-1.18-2.64-2.64-2.64H17.06c-1.45 0-2.64 1.18-2.64 2.64v9.46c0 1.45 1.18 2.64 2.64 2.64s2.64-1.18 2.64-2.64v-2.7c0-2.83 2.3-5.14 5.14-5.14h3.81a1.25 1.25 0 0 1 0 2.5h-3.81c-1.45 0-2.64 1.18-2.64 2.64v2.7c0 2.83-2.3 5.14-5.14 5.14s-5.14-2.3-5.14-5.14v-9.46c0-2.83 2.3-5.14 5.14-5.14h15.13c2.83 0 5.14 2.3 5.14 5.14v6.23c0 .38-.17.73-.46.97a36.2 36.2 0 0 0-10.56 14.23c-.19.47-.65.78-1.16.78zm-9.38 52.15c-2.12 0-3.84-1.72-3.84-3.84V46.38c0-3.05 2.48-5.53 5.53-5.53h.68c1.46 0 2.83.57 3.86 1.6a5.6 5.6 0 0 1 1.63 3.97c0 9.26 3.48 18.02 9.8 24.72a35.83 35.83 0 0 0 22.67 11.11c.69.07 1.19.68 1.12 1.36-.07.69-.67 1.2-1.36 1.12-1.93-.18-3.86-.52-5.75-1-7.07-1.79-13.47-5.56-18.51-10.89-6.76-7.16-10.48-16.54-10.48-26.39 0-.88-.32-1.67-.9-2.25-.56-.56-1.3-.87-2.09-.87h-.68c-1.67 0-3.03 1.36-3.03 3.03v35.52a1.34 1.34 0 0 0 2.68 0v-9.27a3.841 3.841 0 0 1 7.68 0v9.2c0 .74.6 1.34 1.34 1.34h6.29a1.25 1.25 0 0 1 0 2.5h-6.29c-2.12 0-3.84-1.72-3.84-3.84v-9.2a1.34 1.34 0 0 0-2.68 0v9.27c0 2.12-1.72 3.84-3.84 3.84zm88.47 0h-3.3c-2.13 0-3.86-1.73-3.86-3.86v-3.35a1.25 1.25 0 0 1 2.5 0v3.35c0 .75.61 1.36 1.36 1.36h3.3c.75 0 1.36-.61 1.36-1.36v-6.52c0-.75-.61-1.36-1.36-1.36h-13.3c-.75 0-1.36.61-1.36 1.36 0 2.13-1.73 3.86-3.86 3.86h-4.54c-.93 0-1.81.22-2.56.65a38.3 38.3 0 0 1-11.65 4.33c-.68.13-1.33-.31-1.47-.99-.13-.68.31-1.33.99-1.47 3.83-.75 7.49-2.11 10.88-4.05 1.12-.64 2.44-.98 3.8-.98h4.54c.75 0 1.36-.61 1.36-1.36 0-2.13 1.73-3.86 3.86-3.86h13.3c2.13 0 3.86 1.73 3.86 3.86v6.52c0 2.13-1.73 3.86-3.86 3.86z"/><path fill="#ADDEDB" d="M88.51 85.67h-7.22a1.25 1.25 0 0 1 0-2.5h7.22c1.45 0 2.63-1.18 2.63-2.63a1.25 1.25 0 0 1 2.5 0c0 2.83-2.3 5.13-5.13 5.13m12.4-47.6c-.69 0-1.25-.56-1.25-1.25v-4.14a1.25 1.25 0 0 1 2.5 0v4.14c0 .69-.56 1.25-1.25 1.25M18.35 64.23c-.69 0-1.25-.56-1.25-1.25v-4.29a1.25 1.25 0 0 1 2.5 0v4.29c0 .69-.56 1.25-1.25 1.25m84.04 16.56c-.69 0-1.25-.56-1.25-1.25V78.4a1.25 1.25 0 0 1 2.5 0v1.14c0 .69-.56 1.25-1.25 1.25m-11.1-64.7c-.6 0-1.2-.23-1.65-.67-1.19-1.15-2.56-2.2-4.07-3.13a1.25 1.25 0 1 1 1.31-2.13c1.57.96 3 2.05 4.26 3.24v-3.09c0-.86-.7-1.55-1.55-1.55h-9.53a1.25 1.25 0 0 1 0-2.5h9.53c2.23 0 4.05 1.82 4.05 4.05v3.44c0 .95-.56 1.79-1.43 2.16-.3.13-.61.19-.92.19z"/></svg>
